X:18
T:Hornpipe. RDO.18
M:2/4
L:1/16
Q:1/4=80
S:Robert D. Owen MS,Indiana,1826.
R:.Hornpipe
O:Indiana,USA
A:New Harmony
Z:vmp.Chris Partington
K:F
c2|f>c”tr”c2 A>c”tr”c2|dBGF EDCB,|Afcf Bfdf|gbgf e>d”tr”c2|!
f>c”tr”c2 (A>c)”tr”c2|dBGF EDCB,|Afcf Bfdf|GBGE F2:|!
cB|A>c”tr”c2 fcaf|ecbg fedc|dbbd caac|bgdg fedc|!
f>c”tr”c2 A>c”tr”c2|dBGF EDCB,|Afcf Bfdf|GBGE F2:|
W:*tr represents Owen’s Trilly symbol

